X:1
T:Title
%%score { ( 1 3 ) | ( 2 4 ) }
L:1/8
Q:1/4=87
M:6/8
K:Eb
V:1 treble nm="Grand Piano"
V:3 treble 
V:2 bass 
V:4 bass 
V:1
 G>FE [GB][FA][EG] | [Ac]2 [GB] [Ge]3 | [GB]>[FA][EG] [DF]3 | [FA]>[EG][DF] G3 | %4
w: J.~T.~Reese * * * * *||||
 G>FE [GB][FA][EG] | [Ac]2 [GB] [Ge]3 | [B,GB]>[B,FA][B,EG] [EG]2 [A,DF] | [G,E]6 | %8
w: ||||
 [DF]>[EG][FA] [FA][EG][DF] | [EG]2 [FA] [GB]3 | c>cc edc | [GB]>[FA][EG] [DF]3 | %12
w: ||||
 G>FE [GB][FA][EG] | [Ac]2 [GB] [Ge]3 | [B,GB]>[A,FA][B,EG] [EG]2 [A,DF] | %15
w: |||
[M:5/8] [G,E]-[G,E]- [G,E]3 |[M:1/8] B |[M:3/4] B6 | G6 | [DF]>[EG] [FA][FA] [EG][DF] | %20
w: |||||
[M:5/8] [B,EG]2 [B,FA] [B,GB]2 |[M:1/8] B |[M:3/4] e6 | B6 | [B,GB]>[B,FA] [B,EG] [EG]2 [A,DF] | %25
w: |||||
 [G,E]6 |] %26
w: |
V:2
 [E,B,E]>[E,A,D][E,G,] [E,B,][E,B,][E,B,] | [E,E]2 [E,E] [E,B,]3 | [E,B,]>[E,B,][E,B,] [B,,B,]3 | %3
 [B,,B,]>[B,,B,][B,,B,] [E,B,E]3 | [E,B,E]>[E,A,D][E,G,] [E,B,][E,B,][E,B,] | %5
 [E,E]2 [E,E] [E,B,]3 | E,>F,G, B,2 B,, | E,6 | [B,,B,]>[B,,B,][B,,B,] [B,,B,][B,,B,][B,,B,] | %9
 [E,B,]2 [E,B,] [E,E]3 | [A,EA]>[B,EA][A,EA] [A,CA][A,CA][A,EA] | [E,E]>[E,B,][E,B,] [B,,B,]3 | %12
 [E,B,E]>[E,A,D][E,G,] [E,B,][E,B,][E,B,] | [E,E]2 [E,E] [E,B,]3 | E,>F,G, B,2 B,, | %15
[M:5/8] E,-E,- E,3 |[M:1/8][K:treble] G |[M:3/4] G6[K:bass][K:treble] | E6[K:bass] | %19
 [B,,B,]>[B,,B,] [B,,B,][B,,B,] [B,,B,][B,,B,] |[M:5/8] E,2 E, E,2 |[M:1/8][K:treble] G | %22
[M:3/4] G6[K:bass][K:treble] | G6[K:bass] | E,>F, G, B,2 B,, | E,6 |] %26
V:3
 x6 | x6 | x6 | x6 | x6 | x6 | x6 | x6 | x6 | x6 | x6 | x6 | x6 | x6 | x6 |[M:5/8] x5 |[M:1/8] x | %17
[M:3/4] z2 E E2 B | z2 B, B,2 G | x6 |[M:5/8] x5 |[M:1/8] x |[M:3/4] z2 B, B,2 c | z2 E E2 [EG] | %24
 x6 | x6 |] %26
V:4
 x6 | x6 | x6 | x6 | x6 | x6 | x6 | x6 | x6 | x6 | x6 | x6 | x6 | x6 | x6 |[M:5/8] x5 | %16
[M:1/8][K:treble] x |[M:3/4] z2[K:bass] E, E,2[K:treble] G | z2[K:bass] E, E,2 [E,B,E] | x6 | %20
[M:5/8] x5 |[M:1/8][K:treble] x |[M:3/4] z2[K:bass] E, E,2[K:treble] A | z2[K:bass] E, E,2 E, | %24
 x6 | x6 |] %26

